X:1
T:The blackbird - Mundy
T:#
%%score [ 1 { 2 | 3 } 4 5 ]
L:1/8
Q:1/4=120
M:2/2
K:C
V:1 treble nm="Soprano" snm="S"
V:2 treble nm="Alto I" snm="A"
V:3 treble 
V:4 treble-8 nm="Tenor" snm="T"
V:5 bass nm="Bass" snm="B"
V:1
"^The blackbird""^John Mundy\n(c. 1555-1630)" G4 B2 c2 | d6 G2 | c4 d4 | e8 | c4 f2 c2 | %5
w: The black- bird|made the|sweet- est|sound,|the black- bird|
[M:2/2] c6 A2- | A2 d4 ^c2 | d4 A4 | G2 (A2 B4) | c8 | c4 f4 | e4 d4- | d2 (c2 A4) | B4 d4 | %14
w: made the|* sweet- est|sound, the|sweet- est *|sound,|Whose tunes|did far|* ex *|cel, Full|
 e3 f g2 d2 | f4 e4 | d8 | z4 z4 | z4 d4 | e3 f g2 e2 | f4 e4 | d6 G2 | A2 B2 c4- | c4 B4 | %24
w: plea- sant- ly and|most pro-|found,||full|plea- sant- ly and|most pro-|found, Was|all things plac\-|* ed|
 c4 e3 e | A2 c2 f3 f | e2 e2 c2 d2 | e8 | z4 z2 g2 | e2 f2 g4 | z2 c2 f2 d2 | e6 d2 | d4 d4 | %33
w: well, plac- ed|well. Thy pret- ty|tunes mine own sweet|bird,|thy|pret- ty tunes|mine own sweet|bird, mine|own sweet|
 d4 B4 | c4 c2 d2- | d2 c2 B4 | z8 | z8 | z2 g4 f2 | e2 d4 ^c2 | d4 d4- | d4 f4 | e2 d4 a2 | %43
w: bird, Done|with so good|* a grace,|||done with|so good a|grace, ex\-|* tols|thy name, pre-|
 g4 f4 | e4 e2 d2- | d2 c2 c2 B2 | c4 c4 | d6 d2 | e4 c4 | c4 B4 | c4 g4 | f4 d4 | e8 | z8 | z8 | %55
w: fers the|same A- broad|* in ev'- ry|place. Thy|mu- sic|grave, be-|deck- ed|well, be-|deck- ed|well|||
 z4 g4 | f6 e2- | e2 d4 ^c2 | d4 A4 | d6 d2 | d4 d4 | z4 g3 g | d4 z4 | z4 f3 f | e2 g3 f d2 | %65
w: With|sun- dry|* points of|skill, Be-|wrays thy|know- ledge|ex- cel-|lent,|ex- cel-|lent, ex- cel- lent,|
 e3 e e2 e2 | d2 G2 z2 f2 | d2 g2 f2 d2 | e8 | z4 c4 | d6 d2 | d4 e4 | f4 f4 | e6 c2 | d4 z2 d2 | %75
w: ex- cel- lent In-|graft- ed, in-|graft- ed in thy|will.|My|tongue shall|speak, my|pen shall|write In|praise, in|
 g2 d2 B2 ^c2 | d4 d4 | e3 e ^c2 c2 | d2 d2 B4 | z4 z4 | z4 g4 | a3 a ^f2 f2 | g3 g e2 g2 | %83
w: praise of thee to|tell, The|sweet- est bird that|e- ver was,||the|sweet- est bird that|e- ver was, In|
 f2 e2 d2 c2 | B4[Q:1/4=119] G2[Q:1/4=117] d2- |[Q:1/4=115] d2[Q:1/4=113] c2[Q:1/4=110] c4- | %86
w: friend- ly sort fare-|well, in friend\-|* ly sort|
[Q:1/4=107] c4[Q:1/4=103] B4 |[Q:1/4=102] c16 |] %88
w: * fare-|well.|
V:2
 G4 G2 G2 | G8 | G2 c4 B2 | c8 | A4 A2 A2 |[M:2/2] A8 | z2 F2 _B2 A2 | A3 G F4 | D4 G4 | %9
w: The black- bird|made|the sweet- est|sound,|the black- bird|made|the sweet- est|sound, the sweet-|est sound,|
 z2 G2 c3 B | A2 G2 A4 | G4 G4- | G4 ^F4 | G8 | z4 G4 | A3 B c2 A2 | B2 B2 A4 | G4 B3 c | %18
w: Whose tunes did|far ex- cel,|did far|* ex-|cel,|Full|plea- sant- ly and|most pro- found,|full plea- sant-|
 d2 c2 c2 B2 | c6 c2 | c4 c4 | B4 B4 | A4 G4 | G6 F2 | E4 z2 c2- | c2 A4 B2 | c2 G2 A2 D2 | G4 E4 | %28
w: ly and most pro-|found, and|most pro-|found, Was|all things|plac- ed|well. Thy|* pret- ty|tunes, mine own sweet|bird, mine|
 A6 G2 | G4 z2 c2- | c2 A4 B2 | c6 B2 | (A2 G4) ^F2 | G4 G4 | G4 A2 G2- | G2 G2 G4 | E4 F4 | %37
w: own sweet|bird, thy|* pret- ty|tunes, mine|own * sweet|bird, Done|with so good|* a grace,|done with|
 F2 G4 F2 | E4 A2 c2- | c2 B2 A2 G2 | ^F4 A4 | B4 c4- | c2 B4 d2- | d2 c4 B2 | c4 c2 B2- | %45
w: so good a|grace, done with|* so good a|grace, ex-|tols thy|* name, pre\-|* fers the|same A- broad|
 B2 G2 F2 D2 | G4 G4 | A4 B4 | c6 B2 | A4 G4 | G6 c2 | A4 B4 | c4 c4 | B6 A2- | A2 G4 ^F2 | G8 | %56
w: * in ev'- ry|place. Thy|mu- sic|grave, be-|deck- ed|well, be-|deck- ed|well With|sun- dry|* points of|skill,|
 z2 A4 G2- | G2 F2 _B2 A2 | A8 | z4 ^F4 | G6 G2 | G4 G4 | B3 B G4 | z2 c4 B2 | c2 c3 c B2 | %65
w: with sun\-|* dry points of|skill,|Be-|wrays thy|know- ledge|ex- cel- lent,|ex- cel-|lent, ex- cel- lent,|
 c3 c c4 | z2 G4 d2- | d2 c2 c2 B2 | c8 | z4 c4 | B6 B2 | B4 c4- | c2 A4 B2 | c4 c4 | B4 z2 B2 | %75
w: ex- cel- lent,|In- graft\-|* ed in thy|will.|My|tongue shall|speak, my|* pen shall|write In|praise, in|
 B3 B B2 A2 | A8 | G4 A3 A | ^F2 F2 G2 G2 | E2 E2 A3 A | G2 G2 B3 B | A4 z2 A2 | B3 B c2 c2 | %83
w: praise of thee to|tell,|the sweet- est|bird that e- ver|was, the sweet- est|bird that e- ver|was, that|e- ver was, in|
 c3 c B2 c2 | d4 B4 | A4 G4 | G6 F2 | E16 |] %88
w: friend- ly sort fare-|well, in|friend- ly|sort fare-|well.|
V:3
 E4 B,2 E2 | D4 D4 | C4 F4 | E8 | F4 F2 F2 |[M:2/2] F3 F F2 C2 | D4 z2 E2 | F3 E D2 C2 | B,4 D4 | %9
w: The black- bird|made the|sweet- est|sound,|the black- bird|made the sweet- est|sound, Whose|tunes did far ex-|cel, far|
 E8 | A,8 | z4 D4 | F3 E D2 C2 | D8 | z4 z4 | D4 E3 F | G2 D2 F4 | (E2 G2) G4 | A4 G3 G | G6 G2 | %20
w: ex-|cel,|whose|tunes did far ex-|cel,||Full plea- sant-|ly and most|pro * found,|full plea- sant-|ly and|
 A4 G4 | G4 D4 | F4 E4 | D6 D2 | C4 C4 | F4 D4 | C4 z2 G2 | E2 F2 G4 | z2 C2 F2 D2 | C2 D2 E4 | %30
w: most pro-|found, Was|all things|plac- ed|well. Thy|pret- ty|tunes, thy|pret- ty tunes,|mine own sweet|bird, thy pret-|
 F4 F4 | G4 G4 | D6 (C2 | B,4) D4 | E4 E2 D2- | D2 E2 D4 | C4 C4 | D2 C4 C2 | C4 z2 A2 | G4 E4 | %40
w: ty tunes,|mine own|sweet bird,|* Done|with so good|* a grace,|done with|so good a|grace, so|good a|
 A4 F4 | G4 A4 | G6 D2 | E4 F4 | G4 G2 G2- | G2 G2 A2 G2 | E4 E4 | D6 D2 | C4 E4 | F4 D4 | E4 E4 | %51
w: grace, ex-|tols thy|name, pre-|fers the|same A- broad|* in ev'- ry|place. Thy|mu- sic|grave, be-|deck- ed|well, be-|
 F6 F2 | G4 G4 | G6 F2- | F2 D4 D2 | D6 ^C2 | D4 C4 | G2 (A2 G2 E2) | ^F8 | z4 D4 | D6 D2 | D4 D4 | %62
w: deck- ed|well With|sun- dry|* points of|skill, with|sun- dry|points of * *|skill,|Be-|wrays thy|know- ledge|
 G3 G E4 | F6 D2 | G2 G3 A G2 | G3 G G2 C2 | D4 E2 A2 | (G4 A2 G2) | G8 | z4 G4 | G6 G2 | G4 G4 | %72
w: ex- cel- lent,|ex- cel-|lent, ex- cel- lent,|ex- cel- lent, In-|graft- ed in|thy * *|will.|My|tongue shall|speak, my|
 F4 F4 | G4 E4 | D4 z2 G2 | G3 G G2 E2 | ^F8 | z8 | D4 E3 E | ^C2 C2 D3 D | B,4 z2 G2 | %81
w: pen shall|write In|praise, In|praise of thee to|tell,||The sweet- est|bird that e- ver|was, the|
 E3 E A2 A2 | G3 G G2 E2 | A2 G2 G2 G2 | G4 z2 D2 | F4 E4 | D6 D2 | C16 |] %88
w: sweet- est bird that|e- ver was, In|friend- ly sort fare-|well, in|friend- ly|sort fare-|well.|
V:4
 c4 d2 c2 | B4 B4 | (G2 A2) F4 | G4 c4- | c4 A2 F2 |[M:2/2][K:treble-8] c6 c2 | f4 e4 | d4 D4 | %8
w: The black- bird|made the|sweet\- * est|sound, the|* black- bird|made the|sweet- est|sound, Whose|
 G3 F E2 D2 | C4 c4 | f3 e d2 c2 | B2 A2 B4 | c4- c4 | z8 | z8 | z8 | G4 A3 B | c2 e2 d2 (e2 | %18
w: tunes did far ex-|cel, whose|tunes did far ex-|cel, far ex-|cel, *||||Full plea- sant-|ly and most pro\-|
 d8) | c6 c2 | A4 c4 | d4 B4 | c4 c4 | B2 (A2 G4) | G8 | z8 | z2 c2 A2 B2 | c6 C2 | F6 G2 | C4 c4 | %30
w: |found, and|most pro-|found, Was|all things|plac- ed *|well.||Thy pret- ty|tunes mine|own sweet|bird, thy|
 A4 d4 | G6 G2 | A2 (B2 A4) | G4 G4 | c4 A2 B2- | B2 c2 G4 | G4 A4 | A2 G4 A2 | G4 c2 A2 | e6 e2 | %40
w: pret- ty|tunes, mine|own sweet *|bird, Done|with so good|* a grace,|done with|so good a|grace, with so|good a|
 d8 | d4 A4 | c2 d4 d2 | G2 (c2 d4) | G4 c2 d2- | d2 e2 d3 d | c4 C4 | F4 G4 | C4 c4 | d6 d2 | c8 | %51
w: grace,|ex- tols|thy name, pre-|fers the *|same A- broad|* in ev'- ry|place. Thy|mu- sic|grave, be-|deck- ed|well|
 z8 | z4 e4 | d4 e2 c2- | c2 (B2 A4) | B4 G4 | A6 c2 | G2 d2 e4 | d8 | z4 A4 | B6 B2 | B4 B4 | %62
w: |With|sun- dry points|* of *|skill, with|sun- dry|points of *|skill,|Be-|wrays thy|know- ledge|
 z4 c3 c | A4 d3 d | c2 e3 A d2 | c3 c c2 c2 | B6 A2 | B2 (e2 d4) | c8 | z4 e4 | d6 d2 | d4 c4 | %72
w: ex- cel-|lent, ex- cel-|lent, ex- cel- lent,|ex- cel- lent, In|graft- ed|in thy *|will.|My|tongue shall|speak, my|
 A4 d4 | G8 | z4 d4 | d2 B2 e3 e | d8 | z8 | z8 | z8 | d4 e3 e | ^c2 c2 d4- | d2 d2 c2 c2 | %83
w: pen shall|write|In|praise of thee to|tell,||||The sweet- est|bird that e\-|* ver was, In|
 A2 c2 d2 e2 | d4 z2 G2 | A4 c4 | d4 G4 | G16 |] %88
w: friend- 'y sort fare-|well, in|friend- ly|sort fare-|well.|
V:5
 C,4 G,2 C,2 | G,4 G,4 | (E,2 F,2) D,4 | C,8 | F,4 F,2 F,2 |[M:2/2] F,8 | D,4 G,2 A,2 | D,8 | %8
w: The black- bird|made the|sweet\- * est|sound,|the black- bird|made|the sweet- est|sound,|
 z4 G,4 | C3 _B, A,2 G,2 | F,8 | G,8 | A,6 A,2 | G,8 | z8 | z8 | z4 D,4 | E,3 F, G,2 E,2 | %18
w: Whose|tunes did far ex-|cel,|did|far ex-|cel,|||Full|plea- sant- ly and|
 F,4 G,4 | C,6 C,2 | F,4 C,4 | G,4 G,4 | F,4 C,4 | G,6 G,2 | C,8 | z8 | z8 | z4 z2 C2- | %28
w: most pro-|found, and|most pro-|found, Was|all things|plac- ed|well.|||Thy|
 C2 A,4 B,2 | C6 C,2 | F,4 D,4 | C,6 G,2 | ^F,2 (G,2 D,4) | G,8 | z8 | z8 | C,4 F,4 | D,2 E,4 F,2 | %38
w: * pret- ty|tunes, mine|own sweet|bird, mine|own sweet *|bird,|||Done with|so good a|
 C,4 E,2 F,2 | G,4 A,4 | D,8 | G,4 F,4 | C,2 G,4 F,2 | E,4 D,4 | C,4 C,2 G,2- | G,2 E,2 F,2 G,2 | %46
w: grace, with so|good a|grace,|ex- tols|thy name, pre-|fers the|same A- broad|* in ev'- ry|
 C,8 | z4 z4 | z4 C,4 | F,4 G,4 | C,4 C4 | D6 D2 | C4 C,4 | G,4 E,2 F,2- | F,2 (G,2 D,4) | %55
w: place.||Thy|mu- sic|grave, be-|deck- ed|well With|sun- dry points|* of *|
 G,4 E,4 | D,3 E, F,2 C,2 | E,2 F,2 G,2 A,2 | D,8 | z4 D,4 | G,6 G,2 | G,4 G,4 | z4 z4 | %63
w: skill, with|sun- dry points, with|sun- dry points of|skill,|Be-|wrays thy|know- ledge||
 F,3 F, D,4 | z2 E,3 F, G,2 | C,3 C, C,2 C,2 | G,4 E,2 (F,2 | G,2) (E,2 F,2 G,2) | C,8 | z4 C4 | %70
w: ex- cel- lent,|ex- cel- lent,|ex- cel- lent, In-|graft- ed in|* thy * *|will.|My|
 G,6 G,2 | G,4 C,4 | F,4 D,4 | C,4 C,4 | G,6 G,2 | G,6 A,2 | D,8 | z8 | z4 G,4 | A,3 A, ^F,2 F,2 | %80
w: tongue shall|speak, my|pen shall|write In|praise of|thee to|tell,||The|sweet- est bird that|
 G,3 G, E,2 E,2 | A,3 A, D,2 D,2 | G,3 G, C,2 C2 | F,2 C,2 G,2 C2 | G,4 z2 G,2 | F,4 C,4 | %86
w: e- ver was, the|sweet- est bird that|e- ver was, in|friend- ly sort fare-|well, in|friend- ly|
 G,4 G,4 | C,16 |] %88
w: sort fare-|well.|

